topics/special-relativity/Latex/images/svg/Michelson_morley.svg

<svg xmlns="http://www.w3.org/2000/svg" xml:space="preserve" width="3929" height="2395" overflow="hidden"><defs><clipPath id="a"><path d="M209 46h3929v2395H209z"/></clipPath></defs><g clip-path="url(#a)" transform="translate(-209 -46)"><path fill="#DAE3F3" d="M209 46h2631v2395H209z"/><path fill="#5B9BD5" fill-rule="evenodd" d="M1550 2178c153.54 0 278 41.19 278 92s-124.46 92-278 92-278-41.19-278-92 124.46-92 278-92"/><path fill="#7F7F7F" fill-rule="evenodd" d="M1550 119c153.54 0 278 41.19 278 92s-124.46 92-278 92-278-41.19-278-92 124.46-92 278-92M2563 1248c0-153.54 41.19-278 92-278s92 124.46 92 278-41.19 278-92 278-92-124.46-92-278"/><path fill="#C55A11" d="M1588.09 205.5v938.07h-17.18V205.5Zm17.19 929.47-25.78 51.57-25.78-51.57ZM1517.91 1186.54V248.468h17.18v938.072Zm-17.19-929.478 25.78-51.562 25.78 51.562Z"/><path d="M2658.82 1289.09h-933.35v-17.18h933.35Zm-924.76 17.19-51.56-25.78 51.56-25.78ZM1688.5 1218.91h933.35v17.18H1688.5Zm924.76-17.19 51.56 25.78-51.56 25.78ZM1531.09 1380.5v862.05h-17.18V1380.5Zm17.19 853.46-25.78 51.56-25.78-51.56Z"/><path fill="#C55A11" d="M1594.09 1378.5v862.05h-17.18V1378.5Zm17.19 853.46-25.78 51.56-25.78-51.56ZM657.5 1215.91h728.79v17.18H657.5Zm720.2-17.19 51.56 25.78-51.56 25.78Z"/><path d="M657.5 1280.91h728.79v17.18H657.5Zm720.2-17.19 51.56 25.78-51.56 25.78Z"/><path fill="#BFBFBF" fill-rule="evenodd" d="m3086 2027 158-158v79h894v158h-894v79ZM3086 585.5 3243.5 428v78.751H4138V664.25h-894.5V743Z"/><path fill="#A6A6A6" fill-opacity=".549" fill-rule="evenodd" d="M1501.28 1185.52c108.48-108.48 225.52-167.33 261.41-131.44 35.88 35.89-22.96 152.92-131.44 261.41-108.49 108.48-225.52 167.32-261.41 131.44-35.89-35.89 22.96-152.93 131.44-261.41"/><path fill="#C55A11" fill-rule="evenodd" d="M557 1142h41v110h-41ZM515.638 1169h-201.26c-7.778 0-13.855 6.08-13.855 13.86v27.71c0 7.77 6.077 13.85 13.855 13.85l201.018-.24 27.466 27.46.243-110.11zm-27.466 37.68c-5.834 0-10.452-4.62-10.209-10.21 0-5.84 4.618-10.45 10.209-10.21 5.833 0 10.452 4.62 10.209 10.21.243 5.59-4.375 10.21-10.209 10.21"/><path fill-rule="evenodd" d="M556 1274h41v110h-41ZM514.481 1301.26H313.22c-7.778 0-13.855 6.08-13.855 13.86l.001 27.71c-.001 7.78 6.076 13.85 13.854 13.85l201.018-.24 27.466 27.47.243-110.11zm-27.467 37.68c-5.834 0-10.452-4.62-10.209-10.21 0-5.83 4.619-10.45 10.209-10.21 5.834 0 10.452 4.62 10.209 10.21.243 5.59-4.375 10.21-10.209 10.21"/><text font-family="Calibri,Calibri_MSFontService,sans-serif" font-size="83" font-weight="400" transform="translate(3392.78 2208)">Aether movement </text><text font-family="Calibri,Calibri_MSFontService,sans-serif" font-size="83" font-weight="400" transform="translate(3335.54 2307)">relative to equipment</text><text font-family="Calibri,Calibri_MSFontService,sans-serif" font-size="83" font-weight="400" transform="translate(1888.96 232)">Mirror</text><text font-family="Calibri,Calibri_MSFontService,sans-serif" font-size="83" font-weight="400" transform="translate(1632.05 1432)">half silvered </text><text font-family="Calibri,Calibri_MSFontService,sans-serif" font-size="83" font-weight="400" transform="translate(1712.55 1531)">mirror/ </text><text font-family="Calibri,Calibri_MSFontService,sans-serif" font-size="83" font-weight="400" transform="translate(1739.39 1630)">Beam </text><text font-family="Calibri,Calibri_MSFontService,sans-serif" font-size="83" font-weight="400" transform="translate(1716.93 1729)">splitter</text><text font-family="Calibri,Calibri_MSFontService,sans-serif" font-size="83" font-weight="400" transform="translate(367.825 964)">Light </text><text font-family="Calibri,Calibri_MSFontService,sans-serif" font-size="83" font-weight="400" transform="translate(321.923 1063)">sources</text><text font-family="Calibri,Calibri_MSFontService,sans-serif" font-size="83" font-weight="400" transform="translate(1867.25 2297)">Detector</text><text font-family="Calibri,Calibri_MSFontService,sans-serif" font-size="83" font-weight="400" transform="translate(956.206 1063)">light </text><text font-family="Calibri,Calibri_MSFontService,sans-serif" font-size="83" font-weight="400" transform="translate(924.031 1162)">pulses</text></g></svg>

<svg width="3929" height="2395" xmlns="http://www.w3.org/2000/svg" xmlns:xlink="http://www.w3.org/1999/xlink" xml:space="preserve" overflow="hidden"><defs><clipPath id="clip0"><rect x="209" y="46" width="3929" height="2395"/></clipPath></defs><g clip-path="url(#clip0)" transform="translate(-209 -46)"><rect x="209" y="46.0001" width="2631" height="2395" fill="#DAE3F3"/><path d="M1550 2178C1703.54 2178 1828 2219.19 1828 2270 1828 2320.81 1703.54 2362 1550 2362 1396.46 2362 1272 2320.81 1272 2270 1272 2219.19 1396.46 2178 1550 2178Z" fill="#5B9BD5" fill-rule="evenodd"/><path d="M1550 119C1703.54 119 1828 160.19 1828 211 1828 261.81 1703.54 303 1550 303 1396.46 303 1272 261.81 1272 211 1272 160.19 1396.46 119 1550 119Z" fill="#7F7F7F" fill-rule="evenodd"/><path d="M2563 1248C2563 1094.46 2604.19 970 2655 970 2705.81 970 2747 1094.46 2747 1248 2747 1401.54 2705.81 1526 2655 1526 2604.19 1526 2563 1401.54 2563 1248Z" fill="#7F7F7F" fill-rule="evenodd"/><path d="M1588.09 205.5 1588.09 1143.57 1570.91 1143.57 1570.91 205.5ZM1605.28 1134.97 1579.5 1186.54 1553.72 1134.97Z" fill="#C55A11"/><path d="M1517.91 1186.54 1517.91 248.468 1535.09 248.468 1535.09 1186.54ZM1500.72 257.062 1526.5 205.5 1552.28 257.062Z" fill="#C55A11"/><path d="M2658.82 1289.09 1725.47 1289.09 1725.47 1271.91 2658.82 1271.91ZM1734.06 1306.28 1682.5 1280.5 1734.06 1254.72Z"/><path d="M1688.5 1218.91 2621.85 1218.91 2621.85 1236.09 1688.5 1236.09ZM2613.26 1201.72 2664.82 1227.5 2613.26 1253.28Z"/><path d="M1531.09 1380.5 1531.09 2242.55 1513.91 2242.55 1513.91 1380.5ZM1548.28 2233.96 1522.5 2285.52 1496.72 2233.96Z"/><path d="M1594.09 1378.5 1594.09 2240.55 1576.91 2240.55 1576.91 1378.5ZM1611.28 2231.96 1585.5 2283.52 1559.72 2231.96Z" fill="#C55A11"/><path d="M657.5 1215.91 1386.29 1215.91 1386.29 1233.09 657.5 1233.09ZM1377.7 1198.72 1429.26 1224.5 1377.7 1250.28Z" fill="#C55A11"/><path d="M657.5 1280.91 1386.29 1280.91 1386.29 1298.09 657.5 1298.09ZM1377.7 1263.72 1429.26 1289.5 1377.7 1315.28Z"/><path d="M3086 2027 3244 1869 3244 1948 4138 1948 4138 2106 3244 2106 3244 2185Z" fill="#BFBFBF" fill-rule="evenodd"/><path d="M3086 585.5 3243.5 428 3243.5 506.751 4138 506.751 4138 664.25 3243.5 664.25 3243.5 743Z" fill="#BFBFBF" fill-rule="evenodd"/><path d="M1501.28 1185.52C1609.76 1077.04 1726.8 1018.19 1762.69 1054.08 1798.57 1089.97 1739.73 1207 1631.25 1315.49 1522.76 1423.97 1405.73 1482.81 1369.84 1446.93 1333.95 1411.04 1392.8 1294 1501.28 1185.52Z" fill="#A6A6A6" fill-rule="evenodd" fill-opacity="0.54902"/><path d="M557 1142 598 1142 598 1252 557 1252Z" fill="#C55A11" fill-rule="evenodd"/><path d="M515.638 1169 314.378 1169C306.6 1169 300.523 1175.08 300.523 1182.86L300.523 1210.57C300.523 1218.34 306.6 1224.42 314.378 1224.42L515.396 1224.18 542.862 1251.64 543.105 1141.53 515.638 1169ZM488.172 1206.68C482.338 1206.68 477.72 1202.06 477.963 1196.47 477.963 1190.63 482.581 1186.02 488.172 1186.26 494.005 1186.26 498.624 1190.88 498.381 1196.47 498.624 1202.06 494.006 1206.68 488.172 1206.68Z" fill="#C55A11" fill-rule="evenodd"/><path d="M556 1274 597 1274 597 1384 556 1384Z" fill-rule="evenodd"/><path d="M514.481 1301.26 313.22 1301.26C305.442 1301.26 299.365 1307.34 299.365 1315.12L299.366 1342.83C299.365 1350.61 305.442 1356.68 313.22 1356.68L514.238 1356.44 541.704 1383.91 541.947 1273.8 514.481 1301.26ZM487.014 1338.94C481.18 1338.94 476.562 1334.32 476.805 1328.73 476.805 1322.9 481.424 1318.28 487.014 1318.52 492.848 1318.52 497.466 1323.14 497.223 1328.73 497.466 1334.32 492.848 1338.94 487.014 1338.94Z" fill-rule="evenodd"/><text font-family="Calibri,Calibri_MSFontService,sans-serif" font-weight="400" font-size="83" transform="matrix(1 0 0 1 3392.78 2208)">Aether movement </text><text font-family="Calibri,Calibri_MSFontService,sans-serif" font-weight="400" font-size="83" transform="matrix(1 0 0 1 3335.54 2307)">relative to equipment</text><text font-family="Calibri,Calibri_MSFontService,sans-serif" font-weight="400" font-size="83" transform="matrix(1 0 0 1 1888.96 232)">Mirror</text><text font-family="Calibri,Calibri_MSFontService,sans-serif" font-weight="400" font-size="83" transform="matrix(1 0 0 1 1632.05 1432)">half silvered </text><text font-family="Calibri,Calibri_MSFontService,sans-serif" font-weight="400" font-size="83" transform="matrix(1 0 0 1 1712.55 1531)">mirror/ </text><text font-family="Calibri,Calibri_MSFontService,sans-serif" font-weight="400" font-size="83" transform="matrix(1 0 0 1 1739.39 1630)">Beam </text><text font-family="Calibri,Calibri_MSFontService,sans-serif" font-weight="400" font-size="83" transform="matrix(1 0 0 1 1716.93 1729)">splitter</text><text font-family="Calibri,Calibri_MSFontService,sans-serif" font-weight="400" font-size="83" transform="matrix(1 0 0 1 367.825 964)">Light </text><text font-family="Calibri,Calibri_MSFontService,sans-serif" font-weight="400" font-size="83" transform="matrix(1 0 0 1 321.923 1063)">sources</text><text font-family="Calibri,Calibri_MSFontService,sans-serif" font-weight="400" font-size="83" transform="matrix(1 0 0 1 1867.25 2297)">Detector</text><text font-family="Calibri,Calibri_MSFontService,sans-serif" font-weight="400" font-size="83" transform="matrix(1 0 0 1 956.206 1063)">light </text><text font-family="Calibri,Calibri_MSFontService,sans-serif" font-weight="400" font-size="83" transform="matrix(1 0 0 1 924.031 1162)">pulses</text></g></svg>
